logos/auth0.svg

<?xml version="1.0" encoding="UTF-8"?>
<svg width="512px" height="152px" viewBox="0 0 512 152" version="1.1" xmlns="http://www.w3.org/2000/svg" xmlns:xlink="http://www.w3.org/1999/xlink" preserveAspectRatio="xMidYMid">
    <title>auth0</title>
    <g>
        <path d="M117.159215,0 L68.0357682,0 L83.2180192,47.3109032 L132.341466,47.3109032 L92.5974915,75.5241097 L107.784142,123.103375 L107.784142,123.103375 C133.366521,104.467613 141.725338,76.2632051 132.345865,47.3109032 L117.159215,0 Z M3.73007054,47.3109032 L52.8535172,47.3109032 L68.0357682,0 L18.9167209,0 L3.73007054,47.3109032 L3.73007054,47.3109032 C-5.6538012,76.2632051 2.70941501,104.467613 28.2917939,123.103375 L28.2917939,123.103375 L43.4740449,75.5241097 L3.73007054,47.3109032 Z M28.2917939,123.103375 L68.0357682,151.25939 L107.779743,123.103375 L68.0357682,94.4810264 L28.2917939,123.103375 Z M399.022918,46.1494676 C387.395364,46.1494676 380.008809,51.4287204 376.506905,59.9899086 L375.627029,59.9899086 L375.627029,21.0378221 L358.183498,21.0378221 L358.183498,122.861409 L376.014175,122.861409 L376.014175,78.6828626 C376.014175,67.7460107 382.811212,61.4417031 392.371059,61.4417031 C401.728535,61.4417031 407.249753,67.4028593 407.249753,77.5962164 L407.249753,122.861409 L425.080429,122.861409 L425.080429,74.6222374 C425.080429,56.3472242 414.737493,46.1494676 399.022918,46.1494676 Z M473.284406,20.8706458 C449.149422,20.8706458 434.631477,39.7527731 434.569886,72.5721276 C434.569886,105.483869 449.043837,124.616761 473.284406,124.616761 C497.524975,124.616761 511.998926,105.536662 511.998926,72.5721276 C511.985728,39.8055656 497.41939,20.8706458 473.284406,20.8706458 Z M452.976881,72.5897251 C453.025274,48.6527133 460.82537,36.044098 473.284406,36.044098 C481.797201,36.044098 488.127905,41.8908704 491.321853,53.1708738 L453.302435,80.7945637 C453.082466,78.2077299 452.968082,75.4757166 452.976881,72.5897251 Z M473.284406,109.280532 C464.485652,109.280532 457.99657,103.059812 454.939003,90.9747227 L493.169591,63.1838565 C493.486423,66.3032475 493.644725,69.4366879 493.644725,72.5721276 C493.640325,96.7071113 485.840229,109.262934 473.284406,109.262934 L473.284406,109.280532 Z M277.934458,91.0671097 C277.934458,102.593478 269.707622,108.308269 261.828337,108.308269 C253.25835,108.308269 247.53916,102.245927 247.53916,92.6420867 L247.53916,47.2229157 L229.708484,47.2229157 L229.708484,95.4004963 C229.708484,113.578723 240.05142,123.873266 254.930114,123.873266 C266.25851,123.873266 274.238981,117.91211 277.688092,109.438909 L278.47998,109.438909 L278.47998,122.887806 L295.769533,122.887806 L295.769533,47.2185163 L277.934458,47.2185163 L277.934458,91.0671097 Z M189.401389,46.0746782 C173.493241,46.0746782 161.28057,53.1664744 157.338728,66.9585222 L173.985971,69.3209878 C175.745722,64.1517195 180.783009,59.7171472 189.498175,59.7171472 C197.773404,59.7171472 202.304763,63.9537475 202.304763,71.3930945 L202.304763,71.7098496 C202.304763,76.8307248 196.937522,77.0770899 183.589812,78.5068875 C168.935486,80.0686665 154.857479,84.4416475 154.857479,101.480436 C154.857479,116.35473 165.741538,124.234015 180.171496,124.234015 C192.049814,124.234015 199.132812,118.668803 202.383952,112.316102 L202.977867,112.316102 L202.977867,122.707431 L220.113456,122.707431 L220.113456,72.0793973 C220.131039,52.0842276 203.831347,46.0746782 189.401389,46.0746782 Z M202.370753,95.572072 C202.370753,103.99248 195.573715,111.137069 184.839235,111.137069 C177.399888,111.137069 172.081041,107.73635 172.081041,101.185677 C172.081041,94.3402463 178.042197,91.4850505 186.018268,90.3500112 C190.699205,89.7121014 200.056681,88.528669 202.370753,86.6589336 L202.370753,95.572072 Z M333.832945,28.3187915 L316.002269,28.3187915 L316.002269,47.2625101 L305.179801,47.2625101 L305.179801,61.4285049 L316.002269,61.4285049 L316.002269,103.314976 C315.905483,117.551361 326.248419,124.546371 339.648922,124.154826 C342.714607,124.095945 345.760783,123.652543 348.716039,122.835013 L348.716039,108.713012 C347.36543,108.893386 344.206677,109.298129 341.910202,109.350922 C337.431636,109.452107 333.832945,107.771545 333.832945,100.582963 L333.832945,61.4285049 L348.760032,61.4285049 L348.760032,47.2625101 L333.832945,47.2625101 L333.832945,28.3187915 Z" fill="#000000"></path>
    </g>
</svg>

<svg width="512" height="152" xmlns="http://www.w3.org/2000/svg" preserveAspectRatio="xMidYMid">
	<path d="M117.16 0H68.035l15.182 47.31h49.123L92.597 75.525l15.187 47.58c25.583-18.636 33.941-46.84 24.562-75.793L117.159 0ZM3.73 47.31h49.124L68.036 0h-49.12L3.73 47.31c-9.384 28.953-1.02 57.158 24.562 75.793l15.182-47.579L3.73 47.311Zm24.562 75.793 39.744 28.156 39.744-28.156-39.744-28.622-39.744 28.622Zm370.73-76.954c-11.627 0-19.013 5.28-22.515 13.84h-.88V21.039h-17.444V122.86h17.831V78.683c0-10.937 6.797-17.241 16.357-17.241 9.358 0 14.879 5.96 14.879 16.154v45.265h17.83V74.622c0-18.275-10.343-28.473-26.057-28.473Zm74.262-25.278c-24.135 0-38.653 18.882-38.714 51.701 0 32.912 14.474 52.045 38.714 52.045 24.241 0 38.715-19.08 38.715-52.045-.013-32.766-14.58-51.701-38.715-51.701ZM452.977 72.59c.048-23.937 7.848-36.546 20.307-36.546 8.513 0 14.844 5.847 18.038 17.127l-38.02 27.624a93.451 93.451 0 0 1-.325-8.205Zm20.307 36.69c-8.798 0-15.287-6.22-18.345-18.305l38.23-27.791c.317 3.12.476 6.253.476 9.388-.005 24.135-7.805 36.69-20.36 36.69v.019Zm-195.35-18.213c0 11.526-8.226 17.241-16.106 17.241-8.57 0-14.289-6.062-14.289-15.666v-45.42h-17.83V95.4c0 18.179 10.342 28.473 25.221 28.473 11.329 0 19.309-5.96 22.758-14.434h.792v13.449h17.29v-75.67h-17.836v43.85Zm-88.533-44.992c-15.908 0-28.12 7.091-32.062 20.884l16.647 2.362c1.76-5.17 6.797-9.604 15.512-9.604 8.275 0 12.807 4.237 12.807 11.676v.317c0 5.12-5.367 5.367-18.715 6.797-14.655 1.562-28.733 5.935-28.733 22.973 0 14.875 10.885 22.754 25.314 22.754 11.879 0 18.962-5.565 22.213-11.918h.594v10.391h17.135V72.08c.018-19.995-16.282-26.004-30.712-26.004Zm12.97 49.497c0 8.42-6.797 15.565-17.532 15.565-7.44 0-12.758-3.4-12.758-9.951 0-6.846 5.961-9.7 13.937-10.836 4.681-.638 14.039-1.821 16.353-3.691v8.913ZM333.833 28.32h-17.83v18.944H305.18v14.166h10.822v41.886c-.097 14.236 10.246 21.231 23.647 20.84a36.647 36.647 0 0 0 9.067-1.32v-14.122c-1.35.18-4.51.585-6.806.638-4.478.101-8.077-1.58-8.077-8.768V61.429h14.927V47.263h-14.927V28.319Z"/>
</svg>
